; generated by PrusaSlicer 2.5.2+MacOS-arm64 on 2023-06-05 at 14:16:32 UTC


;
;
; 

; external perimeters extrusion width = 0.45mm
; perimeters extrusion width = 0.45mm
; infill extrusion width = 0.45mm
; solid infill extrusion width = 0.45mm
; top infill extrusion width = 0.40mm
; first layer extrusion width = 0.42mm

M73 P0 R127
M73 Q0 S127
M201 X1000 Y1000 Z200 E5000 ; sets maximum accelerations, mm/sec^2
M203 X200 Y200 Z12 E120 ; sets maximum feedrates, mm / sec
M204 P1250 R1250 T1250 ; sets acceleration (P, T) and retract acceleration (R), mm/sec^2
M205 X8.00 Y8.00 Z0.40 E4.50 ; sets the jerk limits, mm/sec
M205 S0 T0 ; sets the minimum extruding and travel feed rate, mm/sec
M107
;TYPE:Custom
M862.3 P "MK3S" ; printer model check
M862.1 P0.4 ; nozzle diameter check
M115 U3.12.2 ; tell printer latest fw version
G90 ; use absolute coordinates
M83 ; extruder relative mode
M104 S215 ; set extruder temp
M140 S60 ; set bed temp
M190 S60 ; wait for bed temp
M109 S215 ; wait for extruder temp
G28 W ; home all without mesh bed level
G80 ; mesh bed leveling

G1 Z0.2 F720
G1 Y-3 F1000 ; go outside print area
G92 E0
G1 X60 E9 F1000 ; intro line
G1 X100 E12.5 F1000 ; intro line

G92 E0
M221 S95

; Don't change E values below. Excessive value can damage the printer.
M907 E430 ; set extruder motor current
G21 ; set units to millimeters
G90 ; use absolute coordinates
M83 ; use relative distances for extrusion
M900 K0.05 ; Filament gcode LA 1.5
M900 K30 ; Filament gcode LA 1.0
M107
;LAYER_CHANGE
;Z:0.2
;HEIGHT:0.2
;BEFORE_LAYER_CHANGE
G92 E0.0
;0.2


G1 E-.8 F2100
G1 Z.4 F720
;AFTER_LAYER_CHANGE
;0.2
G1 X95.515 Y88.193 F10800
G1 Z.2 F720
G1 E.8 F2100
M204 S800
;TYPE:Skirt/Brim
;WIDTH:0.42
G1 F1200
G1 X96.56 Y87.317 E.04278
G1 X97.5 Y87.123 E.03008
G1 X152.5 Y87.123 E1.72449
G1 X153.807 Y87.515 E.04278
G1 X154.683 Y88.56 E.04278
G1 X154.877 Y89.5 E.03008
G1 X154.877 Y120.5 E.97198
G1 X154.485 Y121.807 E.04278
G1 X153.44 Y122.683 E.04278
G1 X152.5 Y122.877 E.03008
G1 X97.5 Y122.877 E1.72449
G1 X96.193 Y122.485 E.04278
G1 X95.317 Y121.44 E.04278
G1 X95.123 Y120.5 E.03008
G1 X95.123 Y89.5 E.97198
G1 X95.497 Y88.25 E.0409
M204 S1000
; printing object AirConRemoteHolder.stl id:0 copy 0
;WIPE_START
G1 F8640
G1 X96.56 Y87.317 E-.32671
G1 X97.5 Y87.123 E-.22155
G1 X98.417 Y87.123 E-.21174
;WIPE_END
G1 E-.04 F2100
G1 Z.6 F720
G1 X151.713 Y119.713 F10800
G1 Z.2 F720
G1 E.8 F2100
M204 S800
;TYPE:Perimeter
;WIDTH:0.419999
G1 F1200
G1 X98.287 Y119.713 E1.67513
G1 X98.287 Y90.287 E.92263
G1 X151.713 Y90.287 E1.67513
G1 X151.713 Y119.653 E.92074
M204 S1000
G1 X152.09 Y120.09 F10800
M204 S800
;TYPE:External perimeter
G1 F1200
G1 X97.91 Y120.09 E1.69877
G1 X97.91 Y89.91 E.94627
G1 X152.09 Y89.91 E1.69877
G1 X152.09 Y120.03 E.94439
M204 S1000
G1 X151.696 Y120.023 F10800
;WIPE_START
G1 F8640
G1 X148.799 Y120.034 E-.76
;WIPE_END
G1 E-.04 F2100
G1 Z.6 F720
G1 X150.78 Y90.457 F10800
G1 Z.2 F720
G1 E.8 F2100
M204 S800
;TYPE:Solid infill
;WIDTH:0.420571
G1 F1200
G1 X151.374 Y91.051 E.02637
G1 X151.374 Y91.585 E.01677
G1 X150.415 Y90.626 E.04255
G1 X149.881 Y90.626 E.01677
G1 X151.374 Y92.119 E.06627
G1 X151.374 Y92.653 E.01677
G1 X149.347 Y90.626 E.08999
G1 X148.813 Y90.626 E.01677
G1 X151.374 Y93.187 E.11371
G1 X151.374 Y93.721 E.01677
G1 X148.279 Y90.626 E.13742
G1 X147.745 Y90.626 E.01677
G1 X151.374 Y94.255 E.16114
G1 X151.374 Y94.789 E.01677
G1 X147.211 Y90.626 E.18486
G1 X146.677 Y90.626 E.01677
G1 X151.374 Y95.323 E.20858
G1 X151.374 Y95.857 E.01677
G1 X146.143 Y90.626 E.23229
G1 X145.609 Y90.626 E.01677
G1 X151.374 Y96.391 E.25601
G1 X151.374 Y96.925 E.01677
G1 X145.075 Y90.626 E.27973
G1 X144.541 Y90.626 E.01677
M73 P0 R126
G1 X151.374 Y97.459 E.30345
G1 X151.374 Y97.994 E.01677
G1 X144.006 Y90.626 E.32717
G1 X143.472 Y90.626 E.01677
G1 X151.374 Y98.528 E.35088
G1 X151.374 Y99.062 E.01677
G1 X142.938 Y90.626 E.3746
G1 X142.404 Y90.626 E.01677
G1 X151.374 Y99.596 E.39832
G1 X151.374 Y100.13 E.01677
G1 X141.87 Y90.626 E.42204
G1 X141.336 Y90.626 E.01677
G1 X151.374 Y100.664 E.44576
G1 X151.374 Y101.198 E.01677
G1 X140.802 Y90.626 E.46947
G1 X140.268 Y90.626 E.01677
G1 X151.374 Y101.732 E.49319
G1 X151.374 Y102.266 E.01677
G1 X139.734 Y90.626 E.51691
G1 X139.2 Y90.626 E.01677
G1 X151.374 Y102.8 E.54063
G1 X151.374 Y103.334 E.01677
G1 X138.666 Y90.626 E.56434
G1 X138.132 Y90.626 E.01677
G1 X151.374 Y103.868 E.58806
G1 X151.374 Y104.403 E.01677
G1 X137.597 Y90.626 E.61178
G1 X137.063 Y90.626 E.01677
G1 X151.374 Y104.937 E.6355
G1 X151.374 Y105.471 E.01677
G1 X136.529 Y90.626 E.65922
G1 X135.995 Y90.626 E.01677
G1 X151.374 Y106.005 E.68293
G1 X151.374 Y106.539 E.01677
G1 X135.461 Y90.626 E.70665
G1 X134.927 Y90.626 E.01677
G1 X151.374 Y107.073 E.73037
G1 X151.374 Y107.607 E.01677
G1 X134.393 Y90.626 E.75409
G1 X133.859 Y90.626 E.01677
G1 X151.374 Y108.141 E.77781
G1 X151.374 Y108.675 E.01677
G1 X133.325 Y90.626 E.80152
G1 X132.791 Y90.626 E.01677
G1 X151.374 Y109.209 E.82524
G1 X151.374 Y109.743 E.01677
M73 Q0 S126
G1 X132.257 Y90.626 E.84896
G1 X131.723 Y90.626 E.01677
G1 X151.374 Y110.277 E.87268
G1 X151.374 Y110.811 E.01677
G1 X131.189 Y90.626 E.89639
G1 X130.654 Y90.626 E.01677
G1 X151.374 Y111.346 E.92011
G1 X151.374 Y111.88 E.01677
G1 X130.12 Y90.626 E.94383
G1 X129.586 Y90.626 E.01677
G1 X151.374 Y112.414 E.96755
G1 X151.374 Y112.948 E.01677
G1 X129.052 Y90.626 E.99127
G1 X128.518 Y90.626 E.01677
G1 X151.374 Y113.482 E1.01498
G1 X151.374 Y114.016 E.01677
G1 X127.984 Y90.626 E1.0387
G1 X127.45 Y90.626 E.01677
G1 X151.374 Y114.55 E1.06242
G1 X151.374 Y115.084 E.01677
G1 X126.916 Y90.626 E1.08614
G1 X126.382 Y90.626 E.01677
M73 P1 R126
M73 Q1 S126
G1 X151.374 Y115.618 E1.10986
G1 X151.374 Y116.152 E.01677
G1 X125.848 Y90.626 E1.13357
G1 X125.314 Y90.626 E.01677
G1 X151.374 Y116.686 E1.15729
G1 X151.374 Y117.22 E.01677
G1 X124.78 Y90.626 E1.18101
G1 X124.245 Y90.626 E.01677
G1 X151.374 Y117.755 E1.20473
G1 X151.374 Y118.289 E.01677
G1 X123.711 Y90.626 E1.22844
G1 X123.177 Y90.626 E.01677
G1 X151.374 Y118.823 E1.25216
G1 X151.374 Y119.357 E.01677
G1 X122.643 Y90.626 E1.27588
G1 X122.109 Y90.626 E.01677
G1 X150.856 Y119.374 E1.27663
G1 X150.322 Y119.374 E.01677
G1 X121.575 Y90.626 E1.27663
G1 X121.041 Y90.626 E.01677
G1 X149.788 Y119.374 E1.27663
G1 X149.254 Y119.374 E.01677
M73 P1 R125
G1 X120.507 Y90.626 E1.27663
G1 X119.973 Y90.626 E.01677
G1 X148.72 Y119.374 E1.27663
G1 X148.186 Y119.374 E.01677
G1 X119.439 Y90.626 E1.27663
G1 X118.905 Y90.626 E.01677
G1 X147.652 Y119.374 E1.27663
G1 X147.118 Y119.374 E.01677
G1 X118.371 Y90.626 E1.27663
G1 X117.837 Y90.626 E.01677
G1 X146.584 Y119.374 E1.27663
G1 X146.05 Y119.374 E.01677
G1 X117.302 Y90.626 E1.27663
G1 X116.768 Y90.626 E.01677
G1 X145.516 Y119.374 E1.27663
G1 X144.981 Y119.374 E.01677
G1 X116.234 Y90.626 E1.27663
G1 X115.7 Y90.626 E.01677
G1 X144.447 Y119.374 E1.27663
G1 X143.913 Y119.374 E.01677
M73 Q1 S125
G1 X115.166 Y90.626 E1.27663
G1 X114.632 Y90.626 E.01677
G1 X143.379 Y119.374 E1.27663
G1 X142.845 Y119.374 E.01677
G1 X114.098 Y90.626 E1.27663
G1 X113.564 Y90.626 E.01677
G1 X142.311 Y119.374 E1.27663
G1 X141.777 Y119.374 E.01677
G1 X113.03 Y90.626 E1.27663
G1 X112.496 Y90.626 E.01677
G1 X141.243 Y119.374 E1.27663
G1 X140.709 Y119.374 E.01677
G1 X111.962 Y90.626 E1.27663
G1 X111.428 Y90.626 E.01677
G1 X140.175 Y119.374 E1.27663
G1 X139.641 Y119.374 E.01677
G1 X110.894 Y90.626 E1.27663
G1 X110.359 Y90.626 E.01677
G1 X139.107 Y119.374 E1.27663
G1 X138.572 Y119.374 E.01677
G1 X109.825 Y90.626 E1.27663
G1 X109.291 Y90.626 E.01677
G1 X138.038 Y119.374 E1.27663
G1 X137.504 Y119.374 E.01677
G1 X108.757 Y90.626 E1.27663
G1 X108.223 Y90.626 E.01677
G1 X136.97 Y119.374 E1.27663
G1 X136.436 Y119.374 E.01677
G1 X107.689 Y90.626 E1.27663
G1 X107.155 Y90.626 E.01677
G1 X135.902 Y119.374 E1.27663
G1 X135.368 Y119.374 E.01677
G1 X106.621 Y90.626 E1.27663
G1 X106.087 Y90.626 E.01677
M73 P2 R125
M73 Q2 S125
G1 X134.834 Y119.374 E1.27663
G1 X134.3 Y119.374 E.01677
G1 X105.553 Y90.626 E1.27663
G1 X105.019 Y90.626 E.01677
M73 P2 R124
G1 X133.766 Y119.374 E1.27663
G1 X133.232 Y119.374 E.01677
G1 X104.485 Y90.626 E1.27663
G1 X103.95 Y90.626 E.01677
G1 X132.698 Y119.374 E1.27663
G1 X132.164 Y119.374 E.01677
G1 X103.416 Y90.626 E1.27663
G1 X102.882 Y90.626 E.01677
G1 X131.629 Y119.374 E1.27663
G1 X131.095 Y119.374 E.01677
G1 X102.348 Y90.626 E1.27663
G1 X101.814 Y90.626 E.01677
G1 X130.561 Y119.374 E1.27663
G1 X130.027 Y119.374 E.01677
G1 X101.28 Y90.626 E1.27663
G1 X100.746 Y90.626 E.01677
G1 X129.493 Y119.374 E1.27663
G1 X128.959 Y119.374 E.01677
G1 X100.212 Y90.626 E1.27663
G1 X99.678 Y90.626 E.01677
M73 Q2 S124
G1 X128.425 Y119.374 E1.27663
G1 X127.891 Y119.374 E.01677
G1 X99.144 Y90.626 E1.27663
G1 X98.626 Y90.626 E.01625
G1 X98.626 Y90.643 E.00053
G1 X127.357 Y119.374 E1.27588
G1 X126.823 Y119.374 E.01677
G1 X98.626 Y91.177 E1.25217
G1 X98.626 Y91.711 E.01677
G1 X126.289 Y119.374 E1.22845
G1 X125.755 Y119.374 E.01677
G1 X98.626 Y92.245 E1.20473
G1 X98.626 Y92.779 E.01677
G1 X125.221 Y119.374 E1.18101
G1 X124.686 Y119.374 E.01677
G1 X98.626 Y93.314 E1.15729
G1 X98.626 Y93.848 E.01677
G1 X124.152 Y119.374 E1.13358
G1 X123.618 Y119.374 E.01677
G1 X98.626 Y94.382 E1.10986
G1 X98.626 Y94.916 E.01677
G1 X123.084 Y119.374 E1.08614
G1 X122.55 Y119.374 E.01677
G1 X98.626 Y95.45 E1.06242
G1 X98.626 Y95.984 E.01677
G1 X122.016 Y119.374 E1.03871
G1 X121.482 Y119.374 E.01677
G1 X98.626 Y96.518 E1.01499
G1 X98.626 Y97.052 E.01677
G1 X120.948 Y119.374 E.99127
G1 X120.414 Y119.374 E.01677
G1 X98.626 Y97.586 E.96755
G1 X98.626 Y98.12 E.01677
G1 X119.88 Y119.374 E.94383
G1 X119.346 Y119.374 E.01677
G1 X98.626 Y98.654 E.92012
G1 X98.626 Y99.188 E.01677
G1 X118.812 Y119.374 E.8964
G1 X118.277 Y119.374 E.01677
G1 X98.626 Y99.723 E.87268
G1 X98.626 Y100.257 E.01677
G1 X117.743 Y119.374 E.84896
G1 X117.209 Y119.374 E.01677
G1 X98.626 Y100.791 E.82524
G1 X98.626 Y101.325 E.01677
M73 P2 R123
G1 X116.675 Y119.374 E.80153
G1 X116.141 Y119.374 E.01677
G1 X98.626 Y101.859 E.77781
G1 X98.626 Y102.393 E.01677
G1 X115.607 Y119.374 E.75409
G1 X115.073 Y119.374 E.01677
G1 X98.626 Y102.927 E.73037
G1 X98.626 Y103.461 E.01677
G1 X114.539 Y119.374 E.70666
G1 X114.005 Y119.374 E.01677
G1 X98.626 Y103.995 E.68294
G1 X98.626 Y104.529 E.01677
G1 X113.471 Y119.374 E.65922
G1 X112.937 Y119.374 E.01677
G1 X98.626 Y105.063 E.6355
G1 X98.626 Y105.597 E.01677
G1 X112.403 Y119.374 E.61178
G1 X111.869 Y119.374 E.01677
G1 X98.626 Y106.131 E.58807
G1 X98.626 Y106.666 E.01677
G1 X111.334 Y119.374 E.56435
G1 X110.8 Y119.374 E.01677
M73 P3 R123
M73 Q3 S124
G1 X98.626 Y107.2 E.54063
G1 X98.626 Y107.734 E.01677
G1 X110.266 Y119.374 E.51691
G1 X109.732 Y119.374 E.01677
G1 X98.626 Y108.268 E.49319
G1 X98.626 Y108.802 E.01677
G1 X109.198 Y119.374 E.46948
G1 X108.664 Y119.374 E.01677
G1 X98.626 Y109.336 E.44576
G1 X98.626 Y109.87 E.01677
G1 X108.13 Y119.374 E.42204
G1 X107.596 Y119.374 E.01677
G1 X98.626 Y110.404 E.39832
G1 X98.626 Y110.938 E.01677
G1 X107.062 Y119.374 E.37461
G1 X106.528 Y119.374 E.01677
G1 X98.626 Y111.472 E.35089
G1 X98.626 Y112.006 E.01677
G1 X105.994 Y119.374 E.32717
G1 X105.46 Y119.374 E.01677
G1 X98.626 Y112.54 E.30345
G1 X98.626 Y113.075 E.01677
G1 X104.925 Y119.374 E.27973
G1 X104.391 Y119.374 E.01677
G1 X98.626 Y113.609 E.25602
G1 X98.626 Y114.143 E.01677
M73 Q3 S123
G1 X103.857 Y119.374 E.2323
G1 X103.323 Y119.374 E.01677
G1 X98.626 Y114.677 E.20858
G1 X98.626 Y115.211 E.01677
G1 X102.789 Y119.374 E.18486
G1 X102.255 Y119.374 E.01677
G1 X98.626 Y115.745 E.16114
G1 X98.626 Y116.279 E.01677
G1 X101.721 Y119.374 E.13743
G1 X101.187 Y119.374 E.01677
G1 X98.626 Y116.813 E.11371
G1 X98.626 Y117.347 E.01677
G1 X100.653 Y119.374 E.08999
G1 X100.119 Y119.374 E.01677
G1 X98.626 Y117.881 E.06627
G1 X98.626 Y118.415 E.01677
G1 X99.585 Y119.374 E.04256
G1 X99.051 Y119.374 E.01677
G1 X98.457 Y118.78 E.02637
M204 S1000
; stop printing object AirConRemoteHolder.stl id:0 copy 0
M106 S84.15
;LAYER_CHANGE
;Z:0.45
;HEIGHT:0.25
;BEFORE_LAYER_CHANGE
G92 E0.0
;0.45


;WIPE_START
G1 F8640
G1 X99.051 Y119.374 E-.19393
G1 X99.585 Y119.374 E-.12332
G1 X98.626 Y118.415 E-.31292
G1 X98.626 Y117.881 E-.12332
G1 X98.646 Y117.901 E-.00652
;WIPE_END
G1 E-.04 F2100
G1 Z.6 F720
;AFTER_LAYER_CHANGE
;0.45
G1 X95.123 Y117.901 F10800
G1 Z.45 F720
G1 E.8 F2100
;TYPE:Skirt/Brim
;WIDTH:0.42
G1 F3000
G1 X95.123 Y89.5 E1.08145
G1 X95.515 Y88.193 E.05195
G1 X96.56 Y87.317 E.05195
G1 X97.5 Y87.123 E.03654
G1 X152.5 Y87.123 E2.09427
G1 X153.807 Y87.515 E.05195
G1 X154.683 Y88.56 E.05195
G1 X154.877 Y89.5 E.03654
G1 X154.877 Y120.5 E1.18041
G1 X154.485 Y121.807 E.05195
G1 X153.44 Y122.683 E.05195
G1 X152.5 Y122.877 E.03654
G1 X97.5 Y122.877 E2.09427
G1 X96.193 Y122.485 E.05195
G1 X95.317 Y121.44 E.05195
G1 X95.123 Y120.5 E.03654
G1 X95.123 Y117.961 E.09667
; printing object AirConRemoteHolder.stl id:0 copy 0
;WIPE_START
G1 F8640
G1 X95.123 Y114.67 E-.76
;WIPE_END
G1 E-.04 F2100
G1 Z.85 F720
G1 X151.879 Y119.879 F10800
G1 Z.45 F720
G1 E.8 F2100
M204 S800
;TYPE:Perimeter
;WIDTH:0.449999
G1 F2700
G1 X98.121 Y119.879 E2.21457
G1 X98.121 Y90.121 E1.22587
G1 X151.879 Y90.121 E2.21457
G1 X151.879 Y119.819 E1.2234
M204 S1000
G1 X152.275 Y120.275 F10800
M204 S800
;TYPE:External perimeter
G1 F1500
G1 X97.725 Y120.275 E2.24723
G1 X97.725 Y89.725 E1.25853
G1 X152.275 Y89.725 E2.24723
G1 X152.275 Y120.215 E1.25606
M204 S1000
G1 X151.881 Y120.207 F10800
;WIPE_START
G1 F8640
G1 X148.984 Y120.219 E-.76
;WIPE_END
G1 E-.04 F2100
G1 Z.85 F720
G1 X150.894 Y119.7 F10800
G1 Z.45 F720
G1 E.8 F2100
;TYPE:Solid infill
;WIDTH:0.452325
G1 F4800
G1 X151.522 Y119.072 E.03679
G1 X151.522 Y118.509 E.02336
G1 X150.509 Y119.522 E.05938
G1 X149.945 Y119.522 E.02336
G1 X151.522 Y117.945 E.09242
G1 X151.522 Y117.381 E.02336
G1 X149.381 Y119.522 E.12546
G1 X148.817 Y119.522 E.02336
G1 X151.522 Y116.817 E.1585
G1 X151.522 Y116.253 E.02336
G1 X148.253 Y119.522 E.19154
G1 X147.69 Y119.522 E.02336
G1 X151.522 Y115.69 E.22458
G1 X151.522 Y115.126 E.02336
G1 X147.126 Y119.522 E.25762
G1 X146.562 Y119.522 E.02336
G1 X151.522 Y114.562 E.29066
G1 X151.522 Y113.998 E.02336
G1 X145.998 Y119.522 E.3237
G1 X145.434 Y119.522 E.02336
G1 X151.522 Y113.434 E.35674
G1 X151.522 Y112.871 E.02336
G1 X144.871 Y119.522 E.38978
G1 X144.307 Y119.522 E.02336
G1 X151.522 Y112.307 E.42282
G1 X151.522 Y111.743 E.02336
G1 X143.743 Y119.522 E.45586
G1 X143.179 Y119.522 E.02336
G1 X151.522 Y111.179 E.4889
G1 X151.522 Y110.615 E.02336
G1 X142.615 Y119.522 E.52194
G1 X142.052 Y119.522 E.02336
G1 X151.522 Y110.052 E.55498
G1 X151.522 Y109.488 E.02336
G1 X141.488 Y119.522 E.58802
G1 X140.924 Y119.522 E.02336
G1 X151.522 Y108.924 E.62106
G1 X151.522 Y108.36 E.02336
G1 X140.36 Y119.522 E.6541
G1 X139.796 Y119.522 E.02336
G1 X151.522 Y107.796 E.68714
G1 X151.522 Y107.232 E.02336
G1 X139.232 Y119.522 E.72018
G1 X138.669 Y119.522 E.02336
G1 X151.522 Y106.669 E.75322
G1 X151.522 Y106.105 E.02336
G1 X138.105 Y119.522 E.78626
G1 X137.541 Y119.522 E.02336
G1 X151.522 Y105.541 E.8193
G1 X151.522 Y104.977 E.02336
G1 X136.977 Y119.522 E.85234
G1 X136.413 Y119.522 E.02336
G1 X151.522 Y104.413 E.88538
G1 X151.522 Y103.85 E.02336
G1 X135.85 Y119.522 E.91842
G1 X135.286 Y119.522 E.02336
G1 X151.522 Y103.286 E.95146
G1 X151.522 Y102.722 E.02336
G1 X134.722 Y119.522 E.9845
G1 X134.158 Y119.522 E.02336
G1 X151.522 Y102.158 E1.01754
G1 X151.522 Y101.594 E.02336
G1 X133.594 Y119.522 E1.05058
G1 X133.031 Y119.522 E.02336
G1 X151.522 Y101.031 E1.08362
G1 X151.522 Y100.467 E.02336
G1 X132.467 Y119.522 E1.11666
G1 X131.903 Y119.522 E.02336
G1 X151.522 Y99.903 E1.1497
G1 X151.522 Y99.339 E.02336
G1 X131.339 Y119.522 E1.18274
G1 X130.775 Y119.522 E.02336
G1 X151.522 Y98.775 E1.21578
G1 X151.522 Y98.211 E.02336
G1 X130.211 Y119.522 E1.24882
G1 X129.648 Y119.522 E.02336
G1 X151.522 Y97.648 E1.28186
G1 X151.522 Y97.084 E.02336
G1 X129.084 Y119.522 E1.3149
G1 X128.52 Y119.522 E.02336
G1 X151.522 Y96.52 E1.34794
G1 X151.522 Y95.956 E.02336
G1 X127.956 Y119.522 E1.38098
G1 X127.392 Y119.522 E.02336
G1 X151.522 Y95.392 E1.41402
G1 X151.522 Y94.829 E.02336
