; generated by PrusaSlicer 2.5.2+MacOS-arm64 on 2023-06-05 at 14:17:48 UTC


;
;
; 

; external perimeters extrusion width = 0.45mm
; perimeters extrusion width = 0.45mm
; infill extrusion width = 0.45mm
; solid infill extrusion width = 0.45mm
; top infill extrusion width = 0.40mm
; first layer extrusion width = 0.42mm

M73 P0 R116
M73 Q0 S116
M201 X1000 Y1000 Z200 E5000 ; sets maximum accelerations, mm/sec^2
M203 X200 Y200 Z12 E120 ; sets maximum feedrates, mm / sec
M204 P1250 R1250 T1250 ; sets acceleration (P, T) and retract acceleration (R), mm/sec^2
M205 X8.00 Y8.00 Z0.40 E4.50 ; sets the jerk limits, mm/sec
M205 S0 T0 ; sets the minimum extruding and travel feed rate, mm/sec
M107
;TYPE:Custom
M862.3 P "MK3S" ; printer model check
M862.1 P0.4 ; nozzle diameter check
M115 U3.12.2 ; tell printer latest fw version
G90 ; use absolute coordinates
M83 ; extruder relative mode
M104 S215 ; set extruder temp
M140 S60 ; set bed temp
M190 S60 ; wait for bed temp
M109 S215 ; wait for extruder temp
G28 W ; home all without mesh bed level
G80 ; mesh bed leveling

G1 Z0.2 F720
G1 Y-3 F1000 ; go outside print area
G92 E0
G1 X60 E9 F1000 ; intro line
G1 X100 E12.5 F1000 ; intro line

G92 E0
M221 S95

; Don't change E values below. Excessive value can damage the printer.
M907 E430 ; set extruder motor current
G21 ; set units to millimeters
G90 ; use absolute coordinates
M83 ; use relative distances for extrusion
M900 K0.05 ; Filament gcode LA 1.5
M900 K30 ; Filament gcode LA 1.0
M107
;LAYER_CHANGE
;Z:0.2
;HEIGHT:0.2
;BEFORE_LAYER_CHANGE
G92 E0.0
;0.2


M73 P0 R115
G1 E-.8 F2100
G1 Z.4 F720
;AFTER_LAYER_CHANGE
;0.2
G1 X100.015 Y91.543 F10800
G1 Z.2 F720
G1 E.8 F2100
M204 S800
;TYPE:Skirt/Brim
;WIDTH:0.42
G1 F1200
G1 X101.06 Y90.667 E.04278
G1 X102 Y90.473 E.03008
G1 X146 Y90.473 E1.37959
G1 X147.307 Y90.865 E.04278
G1 X148.183 Y91.91 E.04278
G1 X148.377 Y92.85 E.03008
G1 X148.377 Y117.15 E.76191
G1 X147.985 Y118.457 E.04278
G1 X146.94 Y119.333 E.04278
G1 X146 Y119.527 E.03008
G1 X102 Y119.527 E1.37959
G1 X100.693 Y119.135 E.04278
G1 X99.817 Y118.09 E.04278
G1 X99.623 Y117.15 E.03008
G1 X99.623 Y92.85 E.76191
G1 X99.997 Y91.6 E.0409
M204 S1000
; printing object FanRemoteHolder.stl id:0 copy 0
;WIPE_START
G1 F8640
G1 X101.06 Y90.667 E-.32671
G1 X102 Y90.473 E-.22155
G1 X102.917 Y90.473 E-.21174
;WIPE_END
G1 E-.04 F2100
G1 Z.6 F720
G1 X102.787 Y116.363 F10800
G1 Z.2 F720
G1 E.8 F2100
M204 S800
;TYPE:Perimeter
;WIDTH:0.419999
G1 F1200
G1 X102.787 Y93.637 E.71255
G1 X145.213 Y93.637 E1.33023
G1 X145.213 Y116.363 E.71255
G1 X102.847 Y116.363 E1.32835
M204 S1000
G1 X102.41 Y116.74 F10800
M204 S800
;TYPE:External perimeter
G1 F1200
G1 X102.41 Y93.26 E.7362
G1 X145.59 Y93.26 E1.35388
G1 X145.59 Y116.74 E.7362
G1 X102.47 Y116.74 E1.352
M204 S1000
G1 X102.55 Y116.365 F10800
;WIPE_START
G1 F8640
G1 X102.462 Y113.449 E-.76
;WIPE_END
G1 E-.04 F2100
G1 Z.6 F720
G1 X144.281 Y93.807 F10800
G1 Z.2 F720
G1 E.8 F2100
M204 S800
;TYPE:Solid infill
;WIDTH:0.420131
G1 F1200
G1 X144.874 Y94.4 E.0263
G1 X144.874 Y94.933 E.01673
G1 X143.917 Y93.976 E.04243
G1 X143.383 Y93.976 E.01673
G1 X144.874 Y95.467 E.0661
G1 X144.874 Y96 E.01673
G1 X142.85 Y93.976 E.08976
G1 X142.317 Y93.976 E.01673
G1 X144.874 Y96.533 E.11342
G1 X144.874 Y97.067 E.01673
G1 X141.783 Y93.976 E.13708
G1 X141.25 Y93.976 E.01673
G1 X144.874 Y97.6 E.16075
G1 X144.874 Y98.134 E.01673
G1 X140.716 Y93.976 E.18441
G1 X140.183 Y93.976 E.01673
G1 X144.874 Y98.667 E.20807
G1 X144.874 Y99.201 E.01673
G1 X139.649 Y93.976 E.23173
G1 X139.116 Y93.976 E.01673
G1 X144.874 Y99.734 E.2554
G1 X144.874 Y100.268 E.01673
G1 X138.582 Y93.976 E.27906
G1 X138.049 Y93.976 E.01673
G1 X144.874 Y100.801 E.30272
G1 X144.874 Y101.335 E.01673
G1 X137.515 Y93.976 E.32638
G1 X136.982 Y93.976 E.01673
G1 X144.874 Y101.868 E.35005
G1 X144.874 Y102.401 E.01673
G1 X136.449 Y93.976 E.37371
G1 X135.915 Y93.976 E.01673
G1 X144.874 Y102.935 E.39737
G1 X144.874 Y103.468 E.01673
G1 X135.382 Y93.976 E.42104
G1 X134.848 Y93.976 E.01673
G1 X144.874 Y104.002 E.4447
G1 X144.874 Y104.535 E.01673
G1 X134.315 Y93.976 E.46836
G1 X133.781 Y93.976 E.01673
G1 X144.874 Y105.069 E.49202
G1 X144.874 Y105.602 E.01673
G1 X133.248 Y93.976 E.51569
G1 X132.714 Y93.976 E.01673
G1 X144.874 Y106.136 E.53935
G1 X144.874 Y106.669 E.01673
G1 X132.181 Y93.976 E.56301
G1 X131.647 Y93.976 E.01673
G1 X144.874 Y107.203 E.58667
G1 X144.874 Y107.736 E.01673
G1 X131.114 Y93.976 E.61034
G1 X130.581 Y93.976 E.01673
G1 X144.874 Y108.269 E.634
G1 X144.874 Y108.803 E.01673
G1 X130.047 Y93.976 E.65766
G1 X129.514 Y93.976 E.01673
G1 X144.874 Y109.336 E.68132
G1 X144.874 Y109.87 E.01673
G1 X128.98 Y93.976 E.70499
G1 X128.447 Y93.976 E.01673
G1 X144.874 Y110.403 E.72865
G1 X144.874 Y110.937 E.01673
G1 X127.913 Y93.976 E.75231
G1 X127.38 Y93.976 E.01673
G1 X144.874 Y111.47 E.77597
G1 X144.874 Y112.004 E.01673
G1 X126.846 Y93.976 E.79964
G1 X126.313 Y93.976 E.01673
G1 X144.874 Y112.537 E.8233
G1 X144.874 Y113.071 E.01673
M73 Q0 S115
G1 X125.779 Y93.976 E.84696
G1 X125.246 Y93.976 E.01673
G1 X144.874 Y113.604 E.87063
G1 X144.874 Y114.138 E.01673
G1 X124.712 Y93.976 E.89429
G1 X124.179 Y93.976 E.01673
G1 X144.874 Y114.671 E.91795
G1 X144.874 Y115.204 E.01673
G1 X123.646 Y93.976 E.94161
G1 X123.112 Y93.976 E.01673
G1 X144.874 Y115.738 E.96528
G1 X144.874 Y116.024 E.00896
M73 P0 R114
G1 X144.626 Y116.024 E.00777
G1 X122.579 Y93.976 E.97795
G1 X122.045 Y93.976 E.01673
G1 X144.092 Y116.024 E.97795
G1 X143.559 Y116.024 E.01673
G1 X121.512 Y93.976 E.97795
G1 X120.978 Y93.976 E.01673
G1 X143.025 Y116.024 E.97795
G1 X142.492 Y116.024 E.01673
G1 X120.445 Y93.976 E.97795
G1 X119.911 Y93.976 E.01673
M73 P1 R114
M73 Q1 S115
G1 X141.958 Y116.024 E.97795
G1 X141.425 Y116.024 E.01673
G1 X119.378 Y93.976 E.97795
G1 X118.844 Y93.976 E.01673
G1 X140.892 Y116.024 E.97795
G1 X140.358 Y116.024 E.01673
G1 X118.311 Y93.976 E.97795
G1 X117.778 Y93.976 E.01673
G1 X139.825 Y116.024 E.97795
G1 X139.291 Y116.024 E.01673
G1 X117.244 Y93.976 E.97795
G1 X116.711 Y93.976 E.01673
G1 X138.758 Y116.024 E.97795
G1 X138.224 Y116.024 E.01673
G1 X116.177 Y93.976 E.97795
G1 X115.644 Y93.976 E.01673
G1 X137.691 Y116.024 E.97795
G1 X137.157 Y116.024 E.01673
G1 X115.11 Y93.976 E.97795
G1 X114.577 Y93.976 E.01673
G1 X136.624 Y116.024 E.97795
G1 X136.09 Y116.024 E.01673
G1 X114.043 Y93.976 E.97795
G1 X113.51 Y93.976 E.01673
G1 X135.557 Y116.024 E.97795
G1 X135.024 Y116.024 E.01673
G1 X112.976 Y93.976 E.97795
G1 X112.443 Y93.976 E.01673
G1 X134.49 Y116.024 E.97795
G1 X133.957 Y116.024 E.01673
G1 X111.91 Y93.976 E.97795
G1 X111.376 Y93.976 E.01673
G1 X133.423 Y116.024 E.97795
G1 X132.89 Y116.024 E.01673
G1 X110.843 Y93.976 E.97795
G1 X110.309 Y93.976 E.01673
G1 X132.356 Y116.024 E.97795
G1 X131.823 Y116.024 E.01673
G1 X109.776 Y93.976 E.97795
G1 X109.242 Y93.976 E.01673
G1 X131.289 Y116.024 E.97795
G1 X130.756 Y116.024 E.01673
G1 X108.709 Y93.976 E.97795
G1 X108.175 Y93.976 E.01673
G1 X130.222 Y116.024 E.97795
G1 X129.689 Y116.024 E.01673
G1 X107.642 Y93.976 E.97795
G1 X107.108 Y93.976 E.01673
G1 X129.156 Y116.024 E.97795
G1 X128.622 Y116.024 E.01673
G1 X106.575 Y93.976 E.97795
G1 X106.041 Y93.976 E.01673
G1 X128.089 Y116.024 E.97795
G1 X127.555 Y116.024 E.01673
M73 Q1 S114
G1 X105.508 Y93.976 E.97795
G1 X104.975 Y93.976 E.01673
G1 X127.022 Y116.024 E.97795
G1 X126.488 Y116.024 E.01673
G1 X104.441 Y93.976 E.97795
G1 X103.908 Y93.976 E.01673
G1 X125.955 Y116.024 E.97795
G1 X125.421 Y116.024 E.01673
G1 X103.374 Y93.976 E.97795
G1 X103.126 Y93.976 E.00777
G1 X103.126 Y94.262 E.00896
G1 X124.888 Y116.024 E.96527
G1 X124.354 Y116.024 E.01673
M73 P1 R113
G1 X103.126 Y94.796 E.94161
G1 X103.126 Y95.329 E.01673
G1 X123.821 Y116.024 E.91795
G1 X123.287 Y116.024 E.01673
G1 X103.126 Y95.863 E.89429
G1 X103.126 Y96.396 E.01673
G1 X122.754 Y116.024 E.87062
G1 X122.221 Y116.024 E.01673
G1 X103.126 Y96.929 E.84696
G1 X103.126 Y97.463 E.01673
G1 X121.687 Y116.024 E.8233
G1 X121.154 Y116.024 E.01673
G1 X103.126 Y97.996 E.79964
G1 X103.126 Y98.53 E.01673
G1 X120.62 Y116.024 E.77597
G1 X120.087 Y116.024 E.01673
G1 X103.126 Y99.063 E.75231
G1 X103.126 Y99.597 E.01673
G1 X119.553 Y116.024 E.72865
G1 X119.02 Y116.024 E.01673
G1 X103.126 Y100.13 E.70499
G1 X103.126 Y100.664 E.01673
G1 X118.486 Y116.024 E.68132
G1 X117.953 Y116.024 E.01673
M73 P2 R113
M73 Q2 S114
G1 X103.126 Y101.197 E.65766
G1 X103.126 Y101.731 E.01673
G1 X117.419 Y116.024 E.634
G1 X116.886 Y116.024 E.01673
G1 X103.126 Y102.264 E.61034
G1 X103.126 Y102.797 E.01673
G1 X116.353 Y116.024 E.58667
G1 X115.819 Y116.024 E.01673
G1 X103.126 Y103.331 E.56301
G1 X103.126 Y103.864 E.01673
G1 X115.286 Y116.024 E.53935
G1 X114.752 Y116.024 E.01673
G1 X103.126 Y104.398 E.51568
G1 X103.126 Y104.931 E.01673
G1 X114.219 Y116.024 E.49202
G1 X113.685 Y116.024 E.01673
G1 X103.126 Y105.465 E.46836
G1 X103.126 Y105.998 E.01673
G1 X113.152 Y116.024 E.4447
G1 X112.618 Y116.024 E.01673
G1 X103.126 Y106.532 E.42103
G1 X103.126 Y107.065 E.01673
G1 X112.085 Y116.024 E.39737
G1 X111.551 Y116.024 E.01673
G1 X103.126 Y107.599 E.37371
G1 X103.126 Y108.132 E.01673
G1 X111.018 Y116.024 E.35005
G1 X110.485 Y116.024 E.01673
G1 X103.126 Y108.665 E.32638
G1 X103.126 Y109.199 E.01673
G1 X109.951 Y116.024 E.30272
G1 X109.418 Y116.024 E.01673
G1 X103.126 Y109.732 E.27906
G1 X103.126 Y110.266 E.01673
G1 X108.884 Y116.024 E.2554
G1 X108.351 Y116.024 E.01673
G1 X103.126 Y110.799 E.23173
G1 X103.126 Y111.333 E.01673
G1 X107.817 Y116.024 E.20807
G1 X107.284 Y116.024 E.01673
G1 X103.126 Y111.866 E.18441
G1 X103.126 Y112.4 E.01673
G1 X106.75 Y116.024 E.16075
G1 X106.217 Y116.024 E.01673
G1 X103.126 Y112.933 E.13708
G1 X103.126 Y113.467 E.01673
G1 X105.683 Y116.024 E.11342
G1 X105.15 Y116.024 E.01673
G1 X103.126 Y114 E.08976
G1 X103.126 Y114.533 E.01673
G1 X104.617 Y116.024 E.0661
G1 X104.083 Y116.024 E.01673
G1 X103.126 Y115.067 E.04243
G1 X103.126 Y115.6 E.01673
G1 X103.719 Y116.193 E.0263
M204 S1000
; stop printing object FanRemoteHolder.stl id:0 copy 0
M106 S84.15
;LAYER_CHANGE
;Z:0.45
;HEIGHT:0.25
;BEFORE_LAYER_CHANGE
G92 E0.0
;0.45


;WIPE_START
G1 F8640
G1 X103.126 Y115.6 E-.19359
G1 X103.126 Y115.067 E-.12318
G1 X104.083 Y116.024 E-.31238
G1 X104.617 Y116.024 E-.12318
G1 X104.593 Y116 E-.00768
;WIPE_END
G1 E-.04 F2100
G1 Z.6 F720
;AFTER_LAYER_CHANGE
;0.45
G1 X104.593 Y119.527 F10800
G1 Z.45 F720
G1 E.8 F2100
;TYPE:Skirt/Brim
;WIDTH:0.42
G1 F3000
G1 X102 Y119.527 E.09873
G1 X100.693 Y119.135 E.05195
G1 X99.817 Y118.09 E.05195
G1 X99.623 Y117.15 E.03654
G1 X99.623 Y92.85 E.92529
G1 X100.015 Y91.543 E.05195
G1 X101.06 Y90.667 E.05195
G1 X102 Y90.473 E.03654
G1 X146 Y90.473 E1.67541
G1 X147.307 Y90.865 E.05195
G1 X148.183 Y91.91 E.05195
G1 X148.377 Y92.85 E.03654
G1 X148.377 Y117.15 E.92529
G1 X147.985 Y118.457 E.05195
G1 X146.94 Y119.333 E.05195
G1 X146 Y119.527 E.03654
G1 X104.653 Y119.527 E1.5744
; printing object FanRemoteHolder.stl id:0 copy 0
;WIPE_START
G1 F8640
G1 X102 Y119.527 E-.61258
G1 X101.388 Y119.344 E-.14742
;WIPE_END
G1 E-.04 F2100
G1 Z.85 F720
G1 X102.621 Y116.529 F10800
G1 Z.45 F720
G1 E.8 F2100
M204 S800
;TYPE:Perimeter
;WIDTH:0.449999
G1 F2700
G1 X102.621 Y93.471 E.94986
G1 X145.379 Y93.471 E1.76142
G1 X145.379 Y116.529 E.94986
G1 X102.681 Y116.529 E1.75895
M204 S1000
G1 X102.225 Y116.925 F10800
M204 S800
;TYPE:External perimeter
G1 F1500
G1 X102.225 Y93.075 E.98252
G1 X145.775 Y93.075 E1.79407
G1 X145.775 Y116.925 E.98252
G1 X102.285 Y116.925 E1.7916
M204 S1000
G1 X102.365 Y116.55 F10800
;WIPE_START
G1 F8640
G1 X102.277 Y113.634 E-.76
;WIPE_END
G1 E-.04 F2100
G1 Z.85 F720
G1 X145.2 Y115.547 F10800
G1 Z.45 F720
G1 E.8 F2100
;TYPE:Solid infill
;WIDTH:0.450973
G1 F4800
G1 X144.575 Y116.172 E.0365
G1 X144.013 Y116.172 E.0232
G1 X145.022 Y115.163 E.0589
G1 X145.022 Y114.602 E.0232
G1 X143.452 Y116.172 E.09171
G1 X142.89 Y116.172 E.0232
G1 X145.022 Y114.04 E.12453
G1 X145.022 Y113.478 E.0232
G1 X142.328 Y116.172 E.15735
G1 X141.766 Y116.172 E.0232
G1 X145.022 Y112.916 E.19016
G1 X145.022 Y112.354 E.0232
G1 X141.204 Y116.172 E.22298
G1 X140.642 Y116.172 E.0232
G1 X145.022 Y111.792 E.2558
G1 X145.022 Y111.23 E.0232
G1 X140.08 Y116.172 E.28861
G1 X139.518 Y116.172 E.0232
G1 X145.022 Y110.668 E.32143
G1 X145.022 Y110.106 E.0232
G1 X138.956 Y116.172 E.35425
G1 X138.394 Y116.172 E.0232
G1 X145.022 Y109.544 E.38706
G1 X145.022 Y108.983 E.0232
G1 X137.833 Y116.172 E.41988
G1 X137.271 Y116.172 E.0232
G1 X145.022 Y108.421 E.45269
G1 X145.022 Y107.859 E.0232
G1 X136.709 Y116.172 E.48551
G1 X136.147 Y116.172 E.0232
G1 X145.022 Y107.297 E.51833
G1 X145.022 Y106.735 E.0232
G1 X135.585 Y116.172 E.55114
G1 X135.023 Y116.172 E.0232
G1 X145.022 Y106.173 E.58396
G1 X145.022 Y105.611 E.0232
G1 X134.461 Y116.172 E.61678
G1 X133.899 Y116.172 E.0232
G1 X145.022 Y105.049 E.64959
G1 X145.022 Y104.487 E.0232
G1 X133.337 Y116.172 E.68241
G1 X132.775 Y116.172 E.0232
G1 X145.022 Y103.925 E.71523
G1 X145.022 Y103.364 E.0232
G1 X132.214 Y116.172 E.74804
G1 X131.652 Y116.172 E.0232
M73 Q2 S113
G1 X145.022 Y102.802 E.78086
G1 X145.022 Y102.24 E.0232
G1 X131.09 Y116.172 E.81368
G1 X130.528 Y116.172 E.0232
G1 X145.022 Y101.678 E.84649
G1 X145.022 Y101.116 E.0232
G1 X129.966 Y116.172 E.87931
G1 X129.404 Y116.172 E.0232
G1 X145.022 Y100.554 E.91212
G1 X145.022 Y99.992 E.0232
G1 X128.842 Y116.172 E.94494
G1 X128.28 Y116.172 E.0232
G1 X145.022 Y99.43 E.97776
G1 X145.022 Y98.868 E.0232
G1 X127.718 Y116.172 E1.01057
G1 X127.156 Y116.172 E.0232
G1 X145.022 Y98.306 E1.04339
G1 X145.022 Y97.745 E.0232
G1 X126.595 Y116.172 E1.07621
G1 X126.033 Y116.172 E.0232
G1 X145.022 Y97.183 E1.10902
G1 X145.022 Y96.621 E.0232
G1 X125.471 Y116.172 E1.14184
G1 X124.909 Y116.172 E.0232
G1 X145.022 Y96.059 E1.17466
G1 X145.022 Y95.497 E.0232
G1 X124.347 Y116.172 E1.20747
G1 X123.785 Y116.172 E.0232
G1 X145.022 Y94.935 E1.24029
G1 X145.022 Y94.373 E.0232
G1 X123.223 Y116.172 E1.27311
G1 X122.661 Y116.172 E.0232
G1 X145.005 Y93.828 E1.30494
G1 X144.443 Y93.828 E.0232
G1 X122.099 Y116.172 E1.30494
G1 X121.537 Y116.172 E.0232
G1 X143.881 Y93.828 E1.30494
G1 X143.319 Y93.828 E.0232
G1 X120.976 Y116.172 E1.30494
G1 X120.414 Y116.172 E.0232
G1 X142.758 Y93.828 E1.30494
G1 X142.196 Y93.828 E.0232
M73 P2 R112
G1 X119.852 Y116.172 E1.30494
G1 X119.29 Y116.172 E.0232
G1 X141.634 Y93.828 E1.30494
G1 X141.072 Y93.828 E.0232
G1 X118.728 Y116.172 E1.30494
G1 X118.166 Y116.172 E.0232
G1 X140.51 Y93.828 E1.30494
G1 X139.948 Y93.828 E.0232
G1 X117.604 Y116.172 E1.30494
G1 X117.042 Y116.172 E.0232
G1 X139.386 Y93.828 E1.30494
G1 X138.824 Y93.828 E.0232
G1 X116.48 Y116.172 E1.30494
G1 X115.918 Y116.172 E.0232
G1 X138.262 Y93.828 E1.30494
G1 X137.7 Y93.828 E.0232
G1 X115.357 Y116.172 E1.30494
G1 X114.795 Y116.172 E.0232
G1 X137.139 Y93.828 E1.30494
G1 X136.577 Y93.828 E.0232
G1 X114.233 Y116.172 E1.30494
G1 X113.671 Y116.172 E.0232
G1 X136.015 Y93.828 E1.30494
G1 X135.453 Y93.828 E.0232
G1 X113.109 Y116.172 E1.30494
G1 X112.547 Y116.172 E.0232
G1 X134.891 Y93.828 E1.30494
G1 X134.329 Y93.828 E.0232
G1 X111.985 Y116.172 E1.30494
G1 X111.423 Y116.172 E.0232
G1 X133.767 Y93.828 E1.30494
G1 X133.205 Y93.828 E.0232
G1 X110.861 Y116.172 E1.30494
G1 X110.299 Y116.172 E.0232
G1 X132.643 Y93.828 E1.30494
G1 X132.081 Y93.828 E.0232
G1 X109.738 Y116.172 E1.30494
G1 X109.176 Y116.172 E.0232
G1 X131.52 Y93.828 E1.30494
G1 X130.958 Y93.828 E.0232
G1 X108.614 Y116.172 E1.30494
G1 X108.052 Y116.172 E.0232
G1 X130.396 Y93.828 E1.30494
G1 X129.834 Y93.828 E.0232
G1 X107.49 Y116.172 E1.30494
G1 X106.928 Y116.172 E.0232
G1 X129.272 Y93.828 E1.30494
G1 X128.71 Y93.828 E.0232
G1 X106.366 Y116.172 E1.30494
G1 X105.804 Y116.172 E.0232
G1 X128.148 Y93.828 E1.30494
G1 X127.586 Y93.828 E.0232
G1 X105.242 Y116.172 E1.30494
G1 X104.68 Y116.172 E.0232
G1 X127.024 Y93.828 E1.30494
G1 X126.462 Y93.828 E.0232
G1 X104.119 Y116.172 E1.30494
G1 X103.557 Y116.172 E.0232
G1 X125.901 Y93.828 E1.30494
G1 X125.339 Y93.828 E.0232
G1 X102.978 Y116.172 E1.30543
G1 X102.978 Y115.627 E.02251
G1 X124.777 Y93.828 E1.2731
G1 X124.215 Y93.828 E.0232
G1 X102.978 Y115.065 E1.24029
G1 X102.978 Y114.503 E.0232
