; generated by PrusaSlicer 2.5.2+MacOS-arm64 on 2023-06-04 at 22:01:09 UTC


;
;
; 

; external perimeters extrusion width = 0.45mm
; perimeters extrusion width = 0.45mm
; infill extrusion width = 0.45mm
; solid infill extrusion width = 0.45mm
; top infill extrusion width = 0.40mm
; first layer extrusion width = 0.42mm

M73 P0 R104
M73 Q0 S104
M201 X1000 Y1000 Z200 E5000 ; sets maximum accelerations, mm/sec^2
M203 X200 Y200 Z12 E120 ; sets maximum feedrates, mm / sec
M204 P1250 R1250 T1250 ; sets acceleration (P, T) and retract acceleration (R), mm/sec^2
M205 X8.00 Y8.00 Z0.40 E4.50 ; sets the jerk limits, mm/sec
M205 S0 T0 ; sets the minimum extruding and travel feed rate, mm/sec
M107
;TYPE:Custom
M862.3 P "MK3S" ; printer model check
M862.1 P0.4 ; nozzle diameter check
M115 U3.12.2 ; tell printer latest fw version
G90 ; use absolute coordinates
M83 ; extruder relative mode
M104 S215 ; set extruder temp
M140 S60 ; set bed temp
M190 S60 ; wait for bed temp
M109 S215 ; wait for extruder temp
G28 W ; home all without mesh bed level
G80 ; mesh bed leveling

G1 Z0.2 F720
G1 Y-3 F1000 ; go outside print area
G92 E0
G1 X60 E9 F1000 ; intro line
G1 X100 E12.5 F1000 ; intro line

G92 E0
M221 S95

; Don't change E values below. Excessive value can damage the printer.
M907 E430 ; set extruder motor current
G21 ; set units to millimeters
G90 ; use absolute coordinates
M83 ; use relative distances for extrusion
M900 K0.05 ; Filament gcode LA 1.5
M900 K30 ; Filament gcode LA 1.0
M107
;LAYER_CHANGE
;Z:0.2
;HEIGHT:0.2
;BEFORE_LAYER_CHANGE
G92 E0.0
;0.2


G1 E-.8 F2100
G1 Z.4 F720
;AFTER_LAYER_CHANGE
;0.2
G1 X100.015 Y91.543 F10800
G1 Z.2 F720
G1 E.8 F2100
M204 S800
;TYPE:Skirt/Brim
;WIDTH:0.42
G1 F1200
G1 X101.06 Y90.667 E.04278
G1 X102 Y90.473 E.03008
G1 X148 Y90.473 E1.4423
G1 X149.307 Y90.865 E.04278
G1 X150.183 Y91.91 E.04278
G1 X150.377 Y92.85 E.03008
G1 X150.377 Y117.15 E.76191
G1 X149.985 Y118.457 E.04278
G1 X148.94 Y119.333 E.04278
G1 X148 Y119.527 E.03008
G1 X102 Y119.527 E1.4423
G1 X100.693 Y119.135 E.04278
G1 X99.817 Y118.09 E.04278
G1 X99.623 Y117.15 E.03008
G1 X99.623 Y92.85 E.76191
G1 X99.997 Y91.6 E.0409
M204 S1000
; printing object FanRemoteHolder.stl id:0 copy 0
;WIPE_START
G1 F8640
G1 X101.06 Y90.667 E-.32671
G1 X102 Y90.473 E-.22155
G1 X102.917 Y90.473 E-.21174
;WIPE_END
G1 E-.04 F2100
G1 Z.6 F720
G1 X102.787 Y116.363 F10800
G1 Z.2 F720
G1 E.8 F2100
M204 S800
;TYPE:Perimeter
;WIDTH:0.419999
G1 F1200
G1 X102.787 Y93.637 E.71255
G1 X147.213 Y93.637 E1.39294
G1 X147.213 Y116.363 E.71255
G1 X102.847 Y116.363 E1.39106
M204 S1000
G1 X102.41 Y116.74 F10800
M204 S800
;TYPE:External perimeter
G1 F1200
G1 X102.41 Y93.26 E.7362
G1 X147.59 Y93.26 E1.41658
M73 P0 R103
G1 X147.59 Y116.74 E.7362
G1 X102.47 Y116.74 E1.4147
M204 S1000
G1 X102.552 Y116.366 F10800
;WIPE_START
G1 F8640
G1 X102.462 Y113.449 E-.76
;WIPE_END
G1 E-.04 F2100
G1 Z.6 F720
G1 X146.276 Y93.807 F10800
G1 Z.2 F720
G1 E.8 F2100
M204 S800
;TYPE:Solid infill
;WIDTH:0.42241
G1 F1200
G1 X146.874 Y94.404 E.02667
G1 X146.874 Y94.941 E.01693
G1 X145.909 Y93.976 E.04305
G1 X145.372 Y93.976 E.01693
G1 X146.874 Y95.478 E.067
G1 X146.874 Y96.014 E.01693
G1 X144.836 Y93.976 E.09095
G1 X144.299 Y93.976 E.01693
G1 X146.874 Y96.551 E.1149
G1 X146.874 Y97.088 E.01693
G1 X143.762 Y93.976 E.13885
G1 X143.225 Y93.976 E.01693
G1 X146.874 Y97.625 E.1628
G1 X146.874 Y98.161 E.01693
G1 X142.689 Y93.976 E.18675
G1 X142.152 Y93.976 E.01693
G1 X146.874 Y98.698 E.2107
G1 X146.874 Y99.235 E.01693
G1 X141.615 Y93.976 E.23464
G1 X141.079 Y93.976 E.01693
G1 X146.874 Y99.771 E.25859
G1 X146.874 Y100.308 E.01693
G1 X140.542 Y93.976 E.28254
G1 X140.005 Y93.976 E.01693
G1 X146.874 Y100.845 E.30649
G1 X146.874 Y101.381 E.01693
G1 X139.469 Y93.976 E.33044
G1 X138.932 Y93.976 E.01693
G1 X146.874 Y101.918 E.35439
G1 X146.874 Y102.455 E.01693
G1 X138.395 Y93.976 E.37834
G1 X137.859 Y93.976 E.01693
G1 X146.874 Y102.991 E.40229
G1 X146.874 Y103.528 E.01693
G1 X137.322 Y93.976 E.42624
G1 X136.785 Y93.976 E.01693
G1 X146.874 Y104.065 E.45019
G1 X146.874 Y104.601 E.01693
G1 X136.249 Y93.976 E.47414
G1 X135.712 Y93.976 E.01693
G1 X146.874 Y105.138 E.49809
G1 X146.874 Y105.675 E.01693
G1 X135.175 Y93.976 E.52204
G1 X134.639 Y93.976 E.01693
G1 X146.874 Y106.211 E.54599
G1 X146.874 Y106.748 E.01693
G1 X134.102 Y93.976 E.56994
G1 X133.565 Y93.976 E.01693
G1 X146.874 Y107.285 E.59389
G1 X146.874 Y107.821 E.01693
G1 X133.029 Y93.976 E.61784
G1 X132.492 Y93.976 E.01693
G1 X146.874 Y108.358 E.64178
G1 X146.874 Y108.895 E.01693
M73 Q0 S103
G1 X131.955 Y93.976 E.66573
G1 X131.419 Y93.976 E.01693
G1 X146.874 Y109.431 E.68968
G1 X146.874 Y109.968 E.01693
G1 X130.882 Y93.976 E.71363
G1 X130.345 Y93.976 E.01693
G1 X146.874 Y110.505 E.73758
G1 X146.874 Y111.042 E.01693
G1 X129.808 Y93.976 E.76153
G1 X129.272 Y93.976 E.01693
G1 X146.874 Y111.578 E.78548
G1 X146.874 Y112.115 E.01693
G1 X128.735 Y93.976 E.80943
G1 X128.198 Y93.976 E.01693
G1 X146.874 Y112.652 E.83338
G1 X146.874 Y113.188 E.01693
G1 X127.662 Y93.976 E.85733
G1 X127.125 Y93.976 E.01693
G1 X146.874 Y113.725 E.88128
G1 X146.874 Y114.262 E.01693
G1 X126.588 Y93.976 E.90523
G1 X126.052 Y93.976 E.01693
G1 X146.874 Y114.798 E.92918
G1 X146.874 Y115.335 E.01693
G1 X125.515 Y93.976 E.95313
G1 X124.978 Y93.976 E.01693
G1 X146.874 Y115.872 E.97708
M73 Q1 S103
G1 X146.874 Y116.024 E.00479
M73 P1 R103
G1 X146.489 Y116.024 E.01214
G1 X124.442 Y93.976 E.98386
G1 X123.905 Y93.976 E.01693
G1 X145.952 Y116.024 E.98386
G1 X145.415 Y116.024 E.01693
G1 X123.368 Y93.976 E.98386
G1 X122.832 Y93.976 E.01693
G1 X144.879 Y116.024 E.98386
G1 X144.342 Y116.024 E.01693
G1 X122.295 Y93.976 E.98386
G1 X121.758 Y93.976 E.01693
G1 X143.805 Y116.024 E.98386
G1 X143.269 Y116.024 E.01693
G1 X121.222 Y93.976 E.98386
G1 X120.685 Y93.976 E.01693
G1 X142.732 Y116.024 E.98386
G1 X142.195 Y116.024 E.01693
G1 X120.148 Y93.976 E.98386
G1 X119.612 Y93.976 E.01693
G1 X141.659 Y116.024 E.98386
G1 X141.122 Y116.024 E.01693
G1 X119.075 Y93.976 E.98386
G1 X118.538 Y93.976 E.01693
G1 X140.585 Y116.024 E.98386
G1 X140.049 Y116.024 E.01693
M73 P1 R102
G1 X118.002 Y93.976 E.98386
G1 X117.465 Y93.976 E.01693
G1 X139.512 Y116.024 E.98386
G1 X138.975 Y116.024 E.01693
G1 X116.928 Y93.976 E.98386
G1 X116.391 Y93.976 E.01693
G1 X138.439 Y116.024 E.98386
G1 X137.902 Y116.024 E.01693
G1 X115.855 Y93.976 E.98386
G1 X115.318 Y93.976 E.01693
G1 X137.365 Y116.024 E.98386
G1 X136.829 Y116.024 E.01693
G1 X114.781 Y93.976 E.98386
G1 X114.245 Y93.976 E.01693
G1 X136.292 Y116.024 E.98386
G1 X135.755 Y116.024 E.01693
G1 X113.708 Y93.976 E.98386
G1 X113.171 Y93.976 E.01693
G1 X135.219 Y116.024 E.98386
G1 X134.682 Y116.024 E.01693
G1 X112.635 Y93.976 E.98386
G1 X112.098 Y93.976 E.01693
G1 X134.145 Y116.024 E.98386
G1 X133.608 Y116.024 E.01693
G1 X111.561 Y93.976 E.98386
G1 X111.025 Y93.976 E.01693
G1 X133.072 Y116.024 E.98386
G1 X132.535 Y116.024 E.01693
M73 Q1 S102
G1 X110.488 Y93.976 E.98386
G1 X109.951 Y93.976 E.01693
G1 X131.998 Y116.024 E.98386
G1 X131.462 Y116.024 E.01693
G1 X109.415 Y93.976 E.98386
G1 X108.878 Y93.976 E.01693
G1 X130.925 Y116.024 E.98386
G1 X130.388 Y116.024 E.01693
G1 X108.341 Y93.976 E.98386
G1 X107.805 Y93.976 E.01693
G1 X129.852 Y116.024 E.98386
G1 X129.315 Y116.024 E.01693
G1 X107.268 Y93.976 E.98386
G1 X106.731 Y93.976 E.01693
G1 X128.778 Y116.024 E.98386
G1 X128.242 Y116.024 E.01693
G1 X106.195 Y93.976 E.98386
G1 X105.658 Y93.976 E.01693
G1 X127.705 Y116.024 E.98386
G1 X127.168 Y116.024 E.01693
G1 X105.121 Y93.976 E.98386
G1 X104.585 Y93.976 E.01693
G1 X126.632 Y116.024 E.98386
G1 X126.095 Y116.024 E.01693
G1 X104.048 Y93.976 E.98386
G1 X103.511 Y93.976 E.01693
M73 P2 R102
M73 Q2 S102
G1 X125.558 Y116.024 E.98386
G1 X125.022 Y116.024 E.01693
G1 X103.126 Y94.128 E.97707
G1 X103.126 Y94.665 E.01693
G1 X124.485 Y116.024 E.95312
G1 X123.948 Y116.024 E.01693
G1 X103.126 Y95.202 E.92918
G1 X103.126 Y95.738 E.01693
G1 X123.412 Y116.024 E.90523
G1 X122.875 Y116.024 E.01693
G1 X103.126 Y96.275 E.88128
G1 X103.126 Y96.812 E.01693
G1 X122.338 Y116.024 E.85733
G1 X121.802 Y116.024 E.01693
G1 X103.126 Y97.348 E.83338
G1 X103.126 Y97.885 E.01693
G1 X121.265 Y116.024 E.80943
G1 X120.728 Y116.024 E.01693
G1 X103.126 Y98.422 E.78548
G1 X103.126 Y98.959 E.01693
G1 X120.191 Y116.024 E.76153
G1 X119.655 Y116.024 E.01693
G1 X103.126 Y99.495 E.73758
G1 X103.126 Y100.032 E.01693
M73 P2 R101
G1 X119.118 Y116.024 E.71363
G1 X118.581 Y116.024 E.01693
G1 X103.126 Y100.569 E.68968
G1 X103.126 Y101.105 E.01693
G1 X118.045 Y116.024 E.66573
G1 X117.508 Y116.024 E.01693
G1 X103.126 Y101.642 E.64178
G1 X103.126 Y102.179 E.01693
G1 X116.971 Y116.024 E.61783
G1 X116.435 Y116.024 E.01693
G1 X103.126 Y102.715 E.59388
G1 X103.126 Y103.252 E.01693
G1 X115.898 Y116.024 E.56993
G1 X115.361 Y116.024 E.01693
G1 X103.126 Y103.789 E.54599
G1 X103.126 Y104.325 E.01693
G1 X114.825 Y116.024 E.52204
G1 X114.288 Y116.024 E.01693
G1 X103.126 Y104.862 E.49809
G1 X103.126 Y105.399 E.01693
G1 X113.751 Y116.024 E.47414
G1 X113.215 Y116.024 E.01693
G1 X103.126 Y105.935 E.45019
G1 X103.126 Y106.472 E.01693
G1 X112.678 Y116.024 E.42624
G1 X112.141 Y116.024 E.01693
G1 X103.126 Y107.009 E.40229
G1 X103.126 Y107.545 E.01693
G1 X111.605 Y116.024 E.37834
G1 X111.068 Y116.024 E.01693
G1 X103.126 Y108.082 E.35439
G1 X103.126 Y108.619 E.01693
G1 X110.531 Y116.024 E.33044
G1 X109.995 Y116.024 E.01693
G1 X103.126 Y109.155 E.30649
G1 X103.126 Y109.692 E.01693
G1 X109.458 Y116.024 E.28254
G1 X108.921 Y116.024 E.01693
G1 X103.126 Y110.229 E.25859
G1 X103.126 Y110.765 E.01693
G1 X108.385 Y116.024 E.23464
G1 X107.848 Y116.024 E.01693
G1 X103.126 Y111.302 E.21069
G1 X103.126 Y111.839 E.01693
G1 X107.311 Y116.024 E.18674
G1 X106.774 Y116.024 E.01693
G1 X103.126 Y112.376 E.16279
G1 X103.126 Y112.912 E.01693
G1 X106.238 Y116.024 E.13885
G1 X105.701 Y116.024 E.01693
G1 X103.126 Y113.449 E.1149
G1 X103.126 Y113.986 E.01693
G1 X105.164 Y116.024 E.09095
G1 X104.628 Y116.024 E.01693
G1 X103.126 Y114.522 E.067
G1 X103.126 Y115.059 E.01693
G1 X104.091 Y116.024 E.04305
G1 X103.554 Y116.024 E.01693
G1 X102.957 Y115.426 E.02667
M204 S1000
; stop printing object FanRemoteHolder.stl id:0 copy 0
M106 S84.15
;LAYER_CHANGE
;Z:0.45
;HEIGHT:0.25
;BEFORE_LAYER_CHANGE
G92 E0.0
;0.45


;WIPE_START
G1 F8640
G1 X103.554 Y116.024 E-.19516
G1 X104.091 Y116.024 E-.12392
G1 X103.126 Y115.059 E-.315
G1 X103.126 Y114.522 E-.12392
G1 X103.133 Y114.528 E-.002
;WIPE_END
G1 E-.04 F2100
G1 Z.6 F720
;AFTER_LAYER_CHANGE
;0.45
G1 X99.623 Y114.528 F10800
G1 Z.45 F720
G1 E.8 F2100
;TYPE:Skirt/Brim
;WIDTH:0.42
G1 F3000
G1 X99.623 Y92.85 E.82546
G1 X100.015 Y91.543 E.05195
G1 X101.06 Y90.667 E.05195
G1 X102 Y90.473 E.03654
G1 X148 Y90.473 E1.75157
G1 X149.307 Y90.865 E.05195
G1 X150.183 Y91.91 E.05195
G1 X150.377 Y92.85 E.03654
G1 X150.377 Y117.15 E.92529
G1 X149.985 Y118.457 E.05195
M73 Q2 S101
G1 X148.94 Y119.333 E.05195
G1 X148 Y119.527 E.03654
G1 X102 Y119.527 E1.75157
G1 X100.693 Y119.135 E.05195
G1 X99.817 Y118.09 E.05195
G1 X99.623 Y117.15 E.03654
G1 X99.623 Y114.588 E.09754
; printing object FanRemoteHolder.stl id:0 copy 0
;WIPE_START
G1 F8640
G1 X99.623 Y111.297 E-.76
;WIPE_END
G1 E-.04 F2100
G1 Z.85 F720
G1 X102.621 Y116.529 F10800
G1 Z.45 F720
G1 E.8 F2100
M204 S800
;TYPE:Perimeter
;WIDTH:0.449999
G1 F2700
G1 X102.621 Y93.471 E.94986
G1 X147.379 Y93.471 E1.84381
G1 X147.379 Y116.529 E.94986
G1 X102.681 Y116.529 E1.84134
M204 S1000
G1 X102.225 Y116.925 F10800
M204 S800
;TYPE:External perimeter
G1 F1500
G1 X102.225 Y93.075 E.98252
G1 X147.775 Y93.075 E1.87646
G1 X147.775 Y116.925 E.98252
G1 X102.285 Y116.925 E1.87399
M204 S1000
G1 X102.367 Y116.551 F10800
;WIPE_START
G1 F8640
G1 X102.277 Y113.634 E-.76
;WIPE_END
G1 E-.04 F2100
G1 Z.85 F720
G1 X146.393 Y116.35 F10800
G1 Z.45 F720
G1 E.8 F2100
;TYPE:Solid infill
;WIDTH:0.452841
G1 F4800
G1 X147.022 Y115.721 E.0369
G1 X147.022 Y115.157 E.02342
G1 X146.007 Y116.172 E.05956
G1 X145.442 Y116.172 E.02342
G1 X147.022 Y114.592 E.09269
G1 X147.022 Y114.028 E.02342
G1 X144.878 Y116.172 E.12581
G1 X144.313 Y116.172 E.02342
G1 X147.022 Y113.463 E.15894
G1 X147.022 Y112.899 E.02342
G1 X143.749 Y116.172 E.19206
G1 X143.184 Y116.172 E.02342
G1 X147.022 Y112.334 E.22519
G1 X147.022 Y111.77 E.02342
G1 X142.62 Y116.172 E.25832
G1 X142.055 Y116.172 E.02342
G1 X147.022 Y111.205 E.29144
G1 X147.022 Y110.641 E.02342
G1 X141.491 Y116.172 E.32457
G1 X140.926 Y116.172 E.02342
G1 X147.022 Y110.076 E.35769
G1 X147.022 Y109.511 E.02342
G1 X140.361 Y116.172 E.39082
G1 X139.797 Y116.172 E.02342
G1 X147.022 Y108.947 E.42394
G1 X147.022 Y108.382 E.02342
G1 X139.232 Y116.172 E.45707
G1 X138.668 Y116.172 E.02342
G1 X147.022 Y107.818 E.4902
G1 X147.022 Y107.253 E.02342
G1 X138.103 Y116.172 E.52332
G1 X137.539 Y116.172 E.02342
G1 X147.022 Y106.689 E.55645
G1 X147.022 Y106.124 E.02342
G1 X136.974 Y116.172 E.58957
G1 X136.41 Y116.172 E.02342
G1 X147.022 Y105.56 E.6227
G1 X147.022 Y104.995 E.02342
G1 X135.845 Y116.172 E.65583
G1 X135.281 Y116.172 E.02342
G1 X147.022 Y104.431 E.68895
G1 X147.022 Y103.866 E.02342
G1 X134.716 Y116.172 E.72208
G1 X134.151 Y116.172 E.02342
G1 X147.022 Y103.301 E.7552
G1 X147.022 Y102.737 E.02342
G1 X133.587 Y116.172 E.78833
G1 X133.022 Y116.172 E.02342
G1 X147.022 Y102.172 E.82145
G1 X147.022 Y101.608 E.02342
G1 X132.458 Y116.172 E.85458
G1 X131.893 Y116.172 E.02342
G1 X147.022 Y101.043 E.88771
G1 X147.022 Y100.479 E.02342
G1 X131.329 Y116.172 E.92083
G1 X130.764 Y116.172 E.02342
G1 X147.022 Y99.914 E.95396
G1 X147.022 Y99.35 E.02342
G1 X130.2 Y116.172 E.98708
G1 X129.635 Y116.172 E.02342
G1 X147.022 Y98.785 E1.02021
G1 X147.022 Y98.221 E.02342
G1 X129.071 Y116.172 E1.05333
G1 X128.506 Y116.172 E.02342
G1 X147.022 Y97.656 E1.08646
G1 X147.022 Y97.092 E.02342
G1 X127.942 Y116.172 E1.11959
G1 X127.377 Y116.172 E.02342
G1 X147.022 Y96.527 E1.15271
G1 X147.022 Y95.962 E.02342
G1 X126.812 Y116.172 E1.18584
G1 X126.248 Y116.172 E.02342
G1 X147.022 Y95.398 E1.21896
G1 X147.022 Y94.833 E.02342
G1 X125.683 Y116.172 E1.25209
G1 X125.119 Y116.172 E.02342
G1 X147.022 Y94.269 E1.28521
G1 X147.022 Y93.828 E.01829
G1 X146.898 Y93.828 E.00514
G1 X124.554 Y116.172 E1.31108
G1 X123.99 Y116.172 E.02342
G1 X146.334 Y93.828 E1.31108
G1 X145.769 Y93.828 E.02342
M73 P3 R101
M73 Q3 S101
G1 X123.425 Y116.172 E1.31108
G1 X122.861 Y116.172 E.02342
G1 X145.205 Y93.828 E1.31108
G1 X144.64 Y93.828 E.02342
G1 X122.296 Y116.172 E1.31108
G1 X121.732 Y116.172 E.02342
G1 X144.075 Y93.828 E1.31108
G1 X143.511 Y93.828 E.02342
G1 X121.167 Y116.172 E1.31108
G1 X120.602 Y116.172 E.02342
G1 X142.946 Y93.828 E1.31108
G1 X142.382 Y93.828 E.02342
G1 X120.038 Y116.172 E1.31108
G1 X119.473 Y116.172 E.02342
G1 X141.817 Y93.828 E1.31108
G1 X141.253 Y93.828 E.02342
G1 X118.909 Y116.172 E1.31108
G1 X118.344 Y116.172 E.02342
G1 X140.688 Y93.828 E1.31108
G1 X140.124 Y93.828 E.02342
G1 X117.78 Y116.172 E1.31108
G1 X117.215 Y116.172 E.02342
G1 X139.559 Y93.828 E1.31108
G1 X138.995 Y93.828 E.02342
G1 X116.651 Y116.172 E1.31108
G1 X116.086 Y116.172 E.02342
G1 X138.43 Y93.828 E1.31108
G1 X137.866 Y93.828 E.02342
G1 X115.522 Y116.172 E1.31108
G1 X114.957 Y116.172 E.02342
G1 X137.301 Y93.828 E1.31108
G1 X136.736 Y93.828 E.02342
G1 X114.393 Y116.172 E1.31108
G1 X113.828 Y116.172 E.02342
G1 X136.172 Y93.828 E1.31108
G1 X135.607 Y93.828 E.02342
G1 X113.263 Y116.172 E1.31108
G1 X112.699 Y116.172 E.02342
G1 X135.043 Y93.828 E1.31108
G1 X134.478 Y93.828 E.02342
G1 X112.134 Y116.172 E1.31108
G1 X111.57 Y116.172 E.02342
G1 X133.914 Y93.828 E1.31108
G1 X133.349 Y93.828 E.02342
G1 X111.005 Y116.172 E1.31108
G1 X110.441 Y116.172 E.02342
G1 X132.785 Y93.828 E1.31108
G1 X132.22 Y93.828 E.02342
G1 X109.876 Y116.172 E1.31108
G1 X109.312 Y116.172 E.02342
G1 X131.656 Y93.828 E1.31108
G1 X131.091 Y93.828 E.02342
G1 X108.747 Y116.172 E1.31108
G1 X108.183 Y116.172 E.02342
G1 X130.526 Y93.828 E1.31108
G1 X129.962 Y93.828 E.02342
G1 X107.618 Y116.172 E1.31108
G1 X107.054 Y116.172 E.02342
G1 X129.397 Y93.828 E1.31108
G1 X128.833 Y93.828 E.02342
M73 P3 R100
G1 X106.489 Y116.172 E1.31108
G1 X105.924 Y116.172 E.02342
